dist/svgs/crypto-icons/icons/pay.svg

<?xml version="1.0" encoding="UTF-8" standalone="yes"?>
<svg xmlns="http://www.w3.org/2000/svg" xmlns:xlink="http://www.w3.org/1999/xlink" width="509.3333333333333px" height="320px" viewBox="0 0 382 240" version="1.1">
  <g id="surface1">
    <path style=" stroke:none;fill-rule:evenodd;fill:rgb(0%,0%,0%);fill-opacity:1;" d="M 380.804688 125.582031 C 380.539062 126.378906 380.210938 126.976562 379.8125 127.375 C 379.414062 127.773438 378.816406 128.105469 378.019531 128.371094 L 276.949219 240 L 191 147.507812 L 105.050781 240 L 3.980469 128.371094 C 3.183594 128.105469 2.585938 127.707031 2.1875 127.175781 C 1.808594 126.675781 1.476562 126.140625 1.195312 125.582031 C 0.929688 124.785156 0.664062 123.921875 0.398438 122.988281 C 0.132812 122.058594 0 121.0625 0 120 C 0 118.9375 0.132812 117.941406 0.398438 117.011719 C 0.664062 116.078125 0.929688 115.214844 1.195312 114.417969 C 1.460938 113.621094 1.789062 113.023438 2.1875 112.625 C 2.585938 112.226562 3.183594 111.894531 3.980469 111.628906 L 105.050781 0.796875 L 191 93.289062 L 276.949219 0 L 378.019531 111.230469 C 378.816406 111.496094 379.414062 111.894531 379.8125 112.425781 C 380.210938 112.957031 380.539062 113.355469 380.804688 113.621094 C 381.335938 114.683594 381.667969 115.613281 381.800781 116.410156 C 381.933594 117.210938 382 118.140625 382 119.203125 C 382 120.53125 381.867188 121.726562 381.601562 122.789062 C 381.335938 123.855469 381.070312 124.785156 380.804688 125.582031 Z M 105.847656 54.21875 L 53.320312 111.628906 L 50.933594 114.417969 C 50.402344 115.214844 49.9375 116.078125 49.539062 117.011719 C 49.144531 117.941406 48.945312 118.9375 48.945312 120 C 48.945312 121.0625 49.144531 122.058594 49.539062 122.988281 C 49.9375 123.921875 50.402344 124.785156 50.933594 125.582031 L 53.320312 128.371094 L 105.847656 185.78125 L 166.328125 120 Z M 331.066406 114.417969 L 328.679688 111.628906 L 276.152344 54.21875 L 215.671875 120 L 276.152344 184.984375 L 328.679688 127.574219 L 331.066406 125.183594 C 331.558594 124.199219 332.023438 123.203125 332.460938 122.191406 C 332.855469 121.261719 333.054688 120.265625 333.054688 119.203125 C 332.789062 118.671875 332.527344 117.941406 332.261719 117.011719 C 332 116.089844 331.597656 115.214844 331.066406 114.417969 Z M 331.066406 114.417969 "/>
  </g>
</svg>

<svg xmlns="http://www.w3.org/2000/svg" viewBox="0 0 382 240"><path fill-rule="evenodd" d="M380.805 125.582c-.266.797-.594 1.395-.993 1.793-.398.398-.996.73-1.792.996L276.95 240 191 147.508 105.05 240 3.98 128.371c-.796-.266-1.394-.664-1.792-1.195a10.3 10.3 0 01-.993-1.594 61.05 61.05 0 01-.797-2.594A10.834 10.834 0 010 120c0-1.063.133-2.059.398-2.988a61.05 61.05 0 01.797-2.594c.266-.797.594-1.395.992-1.793.399-.398.997-.73 1.793-.996L105.05.797 191 93.289 276.95 0l101.07 111.23c.796.266 1.394.665 1.793 1.196.398.531.726.93.992 1.195.53 1.063.863 1.992.996 2.79.133.8.199 1.73.199 2.792 0 1.328-.133 2.524-.398 3.586a37.868 37.868 0 01-.797 2.793zM105.848 54.219l-52.528 57.41-2.386 2.789c-.532.797-.996 1.66-1.395 2.594a7.57 7.57 0 00-.594 2.988c0 1.063.2 2.059.594 2.988a15.84 15.84 0 001.395 2.594l2.386 2.79 52.528 57.41L166.328 120zm225.218 60.199l-2.386-2.79-52.528-57.41L215.672 120l60.48 64.984 52.528-57.41 2.386-2.39a58.94 58.94 0 001.395-2.993 7.57 7.57 0 00.594-2.988c-.266-.531-.528-1.262-.793-2.191a9.207 9.207 0 00-1.196-2.594zm0 0"/></svg>
